packages/icons/src/gitops-no.svg

<svg fill="none" height="64" viewBox="0 0 64 64" width="64" xmlns="http://www.w3.org/2000/svg"><path clip-rule="evenodd" d="m11 1c-4.41828 0-8 3.58172-8 8v6c0 4.4183 3.58172 8 8 8h14.8816l4.3816 3-.7083-3h2.4451c4.4183 0 8-3.5817 8-8v-6c0-4.41828-3.5817-8-8-8z" fill="#4dc952" fill-rule="evenodd"/><rect fill="#77e26c" height="23" rx="8" width="35" x="1" y="1"/><path clip-rule="evenodd" d="m25.8884 22.5 4.1091 2.9128-.4262-1.6648c-.1619-.6325.3159-1.248.9688-1.248h1.4599c3.5899 0 6.5-2.9101 6.5-6.5v-8c0-3.58985-2.9101-6.5-6.5-6.5h-24c-3.58985 0-6.5 2.91015-6.5 6.5v8c0 3.5899 2.91015 6.5 6.5 6.5zm6.1116 1.5c4.4183 0 8-3.5817 8-8v-8c0-4.41828-3.5817-8-8-8h-24c-4.41828 0-8 3.58172-8 8v8c0 4.4183 3.58172 8 8 8h17.4107l4.8307 3.4244c.7594.5383 1.7779-.162 1.5471-1.0638l-.6043-2.3606z" fill="#000" fill-rule="evenodd"/><path d="m16.86 8.132c0-.27067.0607-.504.182-.7.1307-.20533.322-.308.574-.308.2147 0 .406.042.574.126s.252.224.252.42c0 .38267-.0187.91933-.056 1.61-.0373.672-.056 1.1713-.056 1.498 0 .5133.0187 1.1993.056 2.058.0373.8213.056 1.4233.056 1.806 0 .308-.0047.5367-.014.686 0 .1493-.084.2987-.252.448-.1587.14-.406.21-.742.21-.1773 0-.3313-.028-.462-.084-.1213-.0653-.2053-.1353-.252-.21-.4387-.532-1.078-1.4373-1.918-2.716-.9427-1.428-1.7127-2.52-2.31-3.276.0747.672.112 1.4933.112 2.464 0 .4293-.0093.9893-.028 1.68-.0093.6813-.028 1.1293-.056 1.344-.0373.2707-.1213.4807-.252.63-.1213.14-.3173.21-.588.21-.2053 0-.3593-.056-.462-.168-.0933-.1213-.1493-.3267-.168-.616-.0093-.3827.014-.9567.07-1.722.0093-.1213.0233-.3313.042-.63s.028-.5647.028-.798c0-.644-.0327-1.3813-.098-2.212-.056-.91467-.084-1.59133-.084-2.03 0-.224.0793-.39667.238-.518.168-.12133.3593-.182.574-.182.1867 0 .3827.04667.588.14.8027 1.008 1.89 2.51067 3.262 4.508l1.316 2.016c.0093-.1493.014-.3593.014-.63 0-.476-.0093-.9893-.028-1.54s-.0327-.924-.042-1.12c-.0467-.90533-.07-1.70333-.07-2.394zm10.1333-.028c.308.476.5553 1.022.742 1.638.1866.6067.28 1.2273.28 1.862 0 .756-.1307 1.4747-.392 2.156-.252.6813-.6347 1.2367-1.148 1.666-.504.4293-1.12.644-1.848.644-.6814 0-1.3067-.1727-1.876-.518-.5694-.3547-.9987-.7653-1.288-1.232-.2147-.3453-.378-.7327-.49-1.162-.112-.4387-.168-.8773-.168-1.316 0-.7653.1586-1.512.476-2.24.3266-.728.7746-1.31133 1.344-1.75.5413-.40133 1.162-.602 1.862-.602.7746 0 1.61.28467 2.506.854zm-3.752.966c-.084.14-.168.266-.252.378-.2054.308-.3547.5693-.448.784-.0934.2053-.1774.5227-.252.952-.0374.196-.056.4247-.056.686 0 .6627.1306 1.2367.392 1.722.2706.476.6393.798 1.106.966.224.084.476.126.756.126.7 0 1.2273-.308 1.582-.924.364-.6253.546-1.3953.546-2.31 0-.8493-.1587-1.54467-.476-2.086-.3174-.55067-.8074-.826-1.47-.826-.2707 0-.504.042-.7.126-.1867.084-.4294.21933-.728.406z" fill="#000"/><path clip-rule="evenodd" d="m47.6626 28.2148c-.6887-.966-2.1-.9031-2.7203.0845-.0355.0564-.0721.115-.1098.1755l-5.5807 4.9348c-.7277.6434-.7692 1.7647-.0911 2.4603l1.7151 1.7591c-.0019.0241-.0037.0481-.0053.072h-.0124v.3562 3.8161c0 .7375.4697 1.3653 1.1262 1.6007l-1.0713 1.0713c-.7487.655-1.6498.653-2.247.6517l-.077-.0001c-.9726 0-1.857-.9349-1.7734-2.2394.03-.4685-.3254-.8726-.7939-.9026s-.8726.3254-.9026.7939c-.1321 2.06 1.3045 4.0481 3.4699 4.0481.0304 0 .0648.0003.103.0006l.0005.0001c.6005.0057 2.1133.0202 3.3684-1.098.0122-.0108.0241-.0221.0357-.0336l1.2968-1.2969.8958-.8958h1.1862v2.492c0 .4694.3806.85.85.85.4695 0 .85-.3806.85-.85v-2.492h1.1731l2.0128 2.0128c.0116.0115.0235.0228.0357.0336 1.2551 1.1182 2.7679 1.1037 3.3684 1.0979.0383-.0003.0729-.0007.1035-.0007 2.1654 0 3.6019-1.988 3.4699-4.048-.03-.4685-.4341-.824-.9026-.7939-.4685.03-.8239.4341-.7939.9026.0836 1.3045-.8009 2.2393-1.7734 2.2393l-.077.0002c-.5972.0013-1.4983.0033-2.2471-.6517l-.9105-.9105c.6299-.2489 1.0754-.8632 1.0754-1.5816v-3.8161-.2445l1.8631-1.9109c.6781-.6955.6365-1.8168-.0911-2.4603l-5.6663-5.0104c-.0528-.0754-.1038-.1475-.1528-.2163zm4.6929 6.5003-.9581.9827c-.2266-.9124-.5579-1.8111-.9316-2.6537zm-5.8193-5.1459-.1875-.1658-.2026.1792c-.6114.9926-1.4483 2.4277-2.1634 3.9231-.8313 1.7384-1.4246 3.4125-1.4246 4.5515v3.8161h6.1343.0164 1.3009v-3.8161c0-1.5452-.5889-3.2972-1.3808-4.9338-.6825-1.4106-1.4853-2.6741-2.0927-3.5542zm-5.2401 6.0557c.2826-.9059.6736-1.8388 1.0879-2.7156l-2.0061 1.7738zm7.4731 4.0444c0 .4401-.3568.7969-.7969.7969s-.7969-.3568-.7969-.7969.3568-.7968.7969-.7968.7969.3567.7969.7968zm-4.0906.7969c.4401 0 .7968-.3568.7968-.7969s-.3567-.7968-.7968-.7968-.7969.3567-.7969.7968.3568.7969.7969.7969zm.6964 10.7089c0-.4695.3806-.85.85-.85s.85.3805.85.85c0 .4694-.3806.85-.85.85s-.85-.3806-.85-.85zm.85-2.55c-1.4083 0-2.55 1.1416-2.55 2.55 0 1.4083 1.1417 2.55 2.55 2.55s2.55-1.1417 2.55-2.55c0-1.4084-1.1417-2.55-2.55-2.55zm10.6042 1.7c-.4694 0-.85.3805-.85.85 0 .4694.3806.85.85.85.4695 0 .85-.3806.85-.85 0-.4695-.3805-.85-.85-.85zm-2.55.85c0-1.4084 1.1417-2.55 2.55-2.55 1.4084 0 2.55 1.1416 2.55 2.55 0 1.4083-1.1416 2.55-2.55 2.55-1.4083 0-2.55-1.1417-2.55-2.55zm-19.9584 0c0-.4695.3806-.85.85-.85.4695 0 .85.3805.85.85 0 .4694-.3805.85-.85.85-.4694 0-.85-.3806-.85-.85zm.85-2.55c-1.4083 0-2.55 1.1416-2.55 2.55 0 1.4083 1.1417 2.55 2.55 2.55 1.4084 0 2.55-1.1417 2.55-2.55 0-1.4084-1.1416-2.55-2.55-2.55z" fill="#4f5162" fill-rule="evenodd"/></svg>

<svg width="64" height="64" viewBox="0 0 64 64" fill="none" xmlns="http://www.w3.org/2000/svg">
<path fill-rule="evenodd" clip-rule="evenodd" d="M11 1C6.58172 1 3 4.58172 3 9V15C3 19.4183 6.58172 23 11 23H25.8816L30.2632 26L29.5549 23H32C36.4183 23 40 19.4183 40 15V9C40 4.58172 36.4183 1 32 1H11Z" fill="#4DC952"/>
<rect x="1" y="1" width="35" height="23" rx="8" fill="#77E26C"/>
<path fill-rule="evenodd" clip-rule="evenodd" d="M25.8884 22.5L29.9975 25.4128L29.5713 23.748C29.4094 23.1155 29.8872 22.5 30.5401 22.5H32C35.5899 22.5 38.5 19.5899 38.5 16V8C38.5 4.41015 35.5899 1.5 32 1.5H8C4.41015 1.5 1.5 4.41015 1.5 8V16C1.5 19.5899 4.41015 22.5 8 22.5H25.8884ZM32 24C36.4183 24 40 20.4183 40 16V8C40 3.58172 36.4183 0 32 0H8C3.58172 0 0 3.58172 0 8V16C0 20.4183 3.58172 24 8 24H25.4107L30.2414 27.4244C31.0008 27.9627 32.0193 27.2624 31.7885 26.3606L31.1842 24H32Z" fill="black"/>
<path d="M16.86 8.132C16.86 7.86133 16.9207 7.628 17.042 7.432C17.1727 7.22667 17.364 7.124 17.616 7.124C17.8307 7.124 18.022 7.166 18.19 7.25C18.358 7.334 18.442 7.474 18.442 7.67C18.442 8.05267 18.4233 8.58933 18.386 9.28C18.3487 9.952 18.33 10.4513 18.33 10.778C18.33 11.2913 18.3487 11.9773 18.386 12.836C18.4233 13.6573 18.442 14.2593 18.442 14.642C18.442 14.95 18.4373 15.1787 18.428 15.328C18.428 15.4773 18.344 15.6267 18.176 15.776C18.0173 15.916 17.77 15.986 17.434 15.986C17.2567 15.986 17.1027 15.958 16.972 15.902C16.8507 15.8367 16.7667 15.7667 16.72 15.692C16.2813 15.16 15.642 14.2547 14.802 12.976C13.8593 11.548 13.0893 10.456 12.492 9.7C12.5667 10.372 12.604 11.1933 12.604 12.164C12.604 12.5933 12.5947 13.1533 12.576 13.844C12.5667 14.5253 12.548 14.9733 12.52 15.188C12.4827 15.4587 12.3987 15.6687 12.268 15.818C12.1467 15.958 11.9507 16.028 11.68 16.028C11.4747 16.028 11.3207 15.972 11.218 15.86C11.1247 15.7387 11.0687 15.5333 11.05 15.244C11.0407 14.8613 11.064 14.2873 11.12 13.522C11.1293 13.4007 11.1433 13.1907 11.162 12.892C11.1807 12.5933 11.19 12.3273 11.19 12.094C11.19 11.45 11.1573 10.7127 11.092 9.882C11.036 8.96733 11.008 8.29067 11.008 7.852C11.008 7.628 11.0873 7.45533 11.246 7.334C11.414 7.21267 11.6053 7.152 11.82 7.152C12.0067 7.152 12.2027 7.19867 12.408 7.292C13.2107 8.3 14.298 9.80267 15.67 11.8L16.986 13.816C16.9953 13.6667 17 13.4567 17 13.186C17 12.71 16.9907 12.1967 16.972 11.646C16.9533 11.0953 16.9393 10.722 16.93 10.526C16.8833 9.62067 16.86 8.82267 16.86 8.132ZM26.9933 8.104C27.3013 8.58 27.5486 9.126 27.7353 9.742C27.9219 10.3487 28.0153 10.9693 28.0153 11.604C28.0153 12.36 27.8846 13.0787 27.6233 13.76C27.3713 14.4413 26.9886 14.9967 26.4753 15.426C25.9713 15.8553 25.3553 16.07 24.6273 16.07C23.9459 16.07 23.3206 15.8973 22.7513 15.552C22.1819 15.1973 21.7526 14.7867 21.4633 14.32C21.2486 13.9747 21.0853 13.5873 20.9733 13.158C20.8613 12.7193 20.8053 12.2807 20.8053 11.842C20.8053 11.0767 20.9639 10.33 21.2813 9.602C21.6079 8.874 22.0559 8.29067 22.6253 7.852C23.1666 7.45067 23.7873 7.25 24.4873 7.25C25.2619 7.25 26.0973 7.53467 26.9933 8.104ZM23.2413 9.07C23.1573 9.21 23.0733 9.336 22.9893 9.448C22.7839 9.756 22.6346 10.0173 22.5413 10.232C22.4479 10.4373 22.3639 10.7547 22.2893 11.184C22.2519 11.38 22.2333 11.6087 22.2333 11.87C22.2333 12.5327 22.3639 13.1067 22.6253 13.592C22.8959 14.068 23.2646 14.39 23.7313 14.558C23.9553 14.642 24.2073 14.684 24.4873 14.684C25.1873 14.684 25.7146 14.376 26.0693 13.76C26.4333 13.1347 26.6153 12.3647 26.6153 11.45C26.6153 10.6007 26.4566 9.90533 26.1393 9.364C25.8219 8.81333 25.3319 8.538 24.6693 8.538C24.3986 8.538 24.1653 8.58 23.9693 8.664C23.7826 8.748 23.5399 8.88333 23.2413 9.07Z" fill="black"/>
<path fill-rule="evenodd" clip-rule="evenodd" d="M47.6626 28.2148C46.9739 27.2488 45.5626 27.3117 44.9423 28.2993C44.9068 28.3557 44.8702 28.4143 44.8325 28.4748L39.2518 33.4096C38.5241 34.053 38.4826 35.1743 39.1607 35.8699L40.8758 37.629C40.8739 37.6531 40.8721 37.6771 40.8705 37.701H40.8581V38.0572V41.8733C40.8581 42.6108 41.3278 43.2386 41.9843 43.474L40.913 44.5453C40.1643 45.2003 39.2632 45.1983 38.666 45.197L38.589 45.1969C37.6164 45.1969 36.732 44.262 36.8156 42.9575C36.8456 42.489 36.4902 42.0849 36.0217 42.0549C35.5532 42.0249 35.1491 42.3803 35.1191 42.8488C34.987 44.9088 36.4236 46.8969 38.589 46.8969C38.6194 46.8969 38.6538 46.8972 38.692 46.8975L38.6925 46.8976C39.293 46.9033 40.8058 46.9178 42.0609 45.7996C42.0731 45.7888 42.085 45.7775 42.0966 45.766L43.3934 44.4691L43.3934 44.4691L44.2892 43.5733H45.4754V46.0653C45.4754 46.5347 45.856 46.9153 46.3254 46.9153C46.7949 46.9153 47.1754 46.5347 47.1754 46.0653V43.5733H48.3485L50.3613 45.5861C50.3729 45.5976 50.3848 45.6089 50.397 45.6197C51.6521 46.7379 53.1649 46.7234 53.7654 46.7176C53.8037 46.7173 53.8383 46.7169 53.8689 46.7169C56.0343 46.7169 57.4708 44.7289 57.3388 42.6689C57.3088 42.2004 56.9047 41.8449 56.4362 41.875C55.9677 41.905 55.6123 42.3091 55.6423 42.7776C55.7259 44.0821 54.8414 45.0169 53.8689 45.0169L53.7919 45.0171C53.1947 45.0184 52.2936 45.0204 51.5448 44.3654L50.6343 43.4549C51.2642 43.206 51.7097 42.5917 51.7097 41.8733V38.0572V37.8127L53.5728 35.9018C54.2509 35.2063 54.2093 34.085 53.4817 33.4415L47.8154 28.4311C47.7626 28.3557 47.7116 28.2836 47.6626 28.2148ZM52.3555 34.7151L51.3974 35.6978C51.1708 34.7854 50.8395 33.8867 50.4658 33.0441L52.3555 34.7151ZM46.5362 29.5692L46.3487 29.4034L46.1461 29.5826C45.5347 30.5752 44.6978 32.0103 43.9827 33.5057C43.1514 35.2441 42.5581 36.9182 42.5581 38.0572V41.8733L48.6924 41.8733H48.7088H50.0097V38.0572C50.0097 36.512 49.4208 34.76 48.6289 33.1234C47.9464 31.7128 47.1436 30.4493 46.5362 29.5692ZM41.2961 35.6249C41.5787 34.719 41.9697 33.7861 42.384 32.9093L40.3779 34.6831L41.2961 35.6249ZM48.7692 39.6693C48.7692 40.1094 48.4124 40.4662 47.9723 40.4662C47.5322 40.4662 47.1754 40.1094 47.1754 39.6693C47.1754 39.2292 47.5322 38.8725 47.9723 38.8725C48.4124 38.8725 48.7692 39.2292 48.7692 39.6693ZM44.6786 40.4662C45.1187 40.4662 45.4754 40.1094 45.4754 39.6693C45.4754 39.2292 45.1187 38.8725 44.6786 38.8725C44.2385 38.8725 43.8817 39.2292 43.8817 39.6693C43.8817 40.1094 44.2385 40.4662 44.6786 40.4662ZM45.375 51.1751C45.375 50.7056 45.7556 50.3251 46.225 50.3251C46.6944 50.3251 47.075 50.7056 47.075 51.1751C47.075 51.6445 46.6944 52.0251 46.225 52.0251C45.7556 52.0251 45.375 51.6445 45.375 51.1751ZM46.225 48.6251C44.8167 48.6251 43.675 49.7667 43.675 51.1751C43.675 52.5834 44.8167 53.7251 46.225 53.7251C47.6333 53.7251 48.775 52.5834 48.775 51.1751C48.775 49.7667 47.6333 48.6251 46.225 48.6251ZM56.8292 50.3251C56.3598 50.3251 55.9792 50.7056 55.9792 51.1751C55.9792 51.6445 56.3598 52.0251 56.8292 52.0251C57.2987 52.0251 57.6792 51.6445 57.6792 51.1751C57.6792 50.7056 57.2987 50.3251 56.8292 50.3251ZM54.2792 51.1751C54.2792 49.7667 55.4209 48.6251 56.8292 48.6251C58.2376 48.6251 59.3792 49.7667 59.3792 51.1751C59.3792 52.5834 58.2376 53.7251 56.8292 53.7251C55.4209 53.7251 54.2792 52.5834 54.2792 51.1751ZM34.3208 51.1751C34.3208 50.7056 34.7014 50.3251 35.1708 50.3251C35.6403 50.3251 36.0208 50.7056 36.0208 51.1751C36.0208 51.6445 35.6403 52.0251 35.1708 52.0251C34.7014 52.0251 34.3208 51.6445 34.3208 51.1751ZM35.1708 48.6251C33.7625 48.6251 32.6208 49.7667 32.6208 51.1751C32.6208 52.5834 33.7625 53.7251 35.1708 53.7251C36.5792 53.7251 37.7208 52.5834 37.7208 51.1751C37.7208 49.7667 36.5792 48.6251 35.1708 48.6251Z" fill="#4F5162"/>
</svg>
